vsi/three-bars_dark.svg

<svg viewBox="0 0 16 16" fill="none" xmlns="http://www.w3.org/2000/svg" height="1em" width="1em">
  <path fill-rule="evenodd" clip-rule="evenodd" d="M14 5H2V3h12v2Zm0 4H2V7h12v2ZM2 13h12v-2H2v2Z" fill="#C5C5C5"/>
</svg>

<svg viewBox="0 0 16 16" fill="none" xmlns="http://www.w3.org/2000/svg" height="1em" width="1em">
  <path fill-rule="evenodd" clip-rule="evenodd" d="M14 5H2V3H14V5ZM14 9H2V7H14V9ZM2 13H14V11H2V13Z" fill="#C5C5C5"/>
</svg>
